X:1
T:Calliope House
C:Dave Richardson
M:6/8
L:1/8
R:Jig
K:E
B|:eBB gBB|fBB gBB|cff f2{gf}e|fge c2e|~B3 B2G|
B2c e2f|1 gfg gfe|~f3 Bcd:|2 gbg fec|e3 fga||
|:b3 gbb|fbb gbb|a3 gag|f2e c2e|~B3 B2G|B2c e2f|1
gfg gfe|~f3 fga:|2 gbg fec|e3 Bcd||

